X: 31964
T: Peat-Fire Flame, The
R: polka
M: 2/4
K: Aminor
ac' ga/g/|ed e2|(e4|e4)||
A>B cB|AG e2|ed dc/d/|ed de|
AA/B/ cB|AG e>d|cA BG|A2A2||
c>d ec'/b/|ag2e|ed dc/d/|ed de|
c>d ec'/b/|ag e>d|cA BG|A2A2||

